Simply black circles/scalable/places/folder-download.svg

<?xml version="1.0" encoding="UTF-8" standalone="no"?>
<!-- Created with Inkscape (http://www.inkscape.org/) -->

<svg
   xmlns:dc="http://purl.org/dc/elements/1.1/"
   xmlns:cc="http://creativecommons.org/ns#"
   xmlns:rdf="http://www.w3.org/1999/02/22-rdf-syntax-ns#"
   xmlns:svg="http://www.w3.org/2000/svg"
   xmlns="http://www.w3.org/2000/svg"
   xmlns:sodipodi="http://sodipodi.sourceforge.net/DTD/sodipodi-0.dtd"
   xmlns:inkscape="http://www.inkscape.org/namespaces/inkscape"
   width="48"
   height="48"
   viewBox="0 0 12.7 12.7"
   version="1.1"
   id="svg829"
   inkscape:version="0.92.3 (2405546, 2018-03-11)"
   sodipodi:docname="folder-download.svg">
  <defs
     id="defs823">
    <linearGradient
       id="linearGradient3028"
       y2="20.709999"
       gradientUnits="userSpaceOnUse"
       x2="0.81572002"
       gradientTransform="matrix(0,-0.16261291,-0.15447433,0,9.6921972,294.36032)"
       y1="20.709999"
       x1="28.315001">
      <stop
         id="stop2530"
         style="stop-color:#e6e6e6"
         offset="0" />
      <stop
         id="stop2532"
         style="stop-color:#929292"
         offset="1" />
    </linearGradient>
  </defs>
  <sodipodi:namedview
     id="base"
     pagecolor="#ffffff"
     bordercolor="#666666"
     borderopacity="1.0"
     inkscape:pageopacity="0.0"
     inkscape:pageshadow="2"
     inkscape:zoom="5.125"
     inkscape:cx="-20.097561"
     inkscape:cy="22.829268"
     inkscape:document-units="mm"
     inkscape:current-layer="layer1"
     showgrid="false"
     showguides="true"
     inkscape:guide-bbox="true"
     inkscape:window-width="1366"
     inkscape:window-height="714"
     inkscape:window-x="0"
     inkscape:window-y="25"
     inkscape:window-maximized="1"
     scale-x="1.9"
     units="px" />
  <metadata
     id="metadata826">
    <rdf:RDF>
      <cc:Work
         rdf:about="">
        <dc:format>image/svg+xml</dc:format>
        <dc:type
           rdf:resource="http://purl.org/dc/dcmitype/StillImage" />
        <dc:title></dc:title>
      </cc:Work>
    </rdf:RDF>
  </metadata>
  <g
     inkscape:label="Capa 1"
     inkscape:groupmode="layer"
     id="layer1"
     transform="translate(0,-284.3)">
    <path
       style="fill:#1a1a1a;fill-opacity:1;stroke-width:0.52516764"
       d="M 23.978516 0.27539062 A 23.770509 23.770509 0 0 0 0.20703125 24.046875 A 23.770509 23.770509 0 0 0 23.978516 47.816406 A 23.770509 23.770509 0 0 0 47.748047 24.046875 A 23.770509 23.770509 0 0 0 23.978516 0.27539062 z M 23.910156 3.8144531 A 20.436071 20.436071 0 0 1 44.345703 24.25 A 20.436071 20.436071 0 0 1 23.910156 44.685547 A 20.436071 20.436071 0 0 1 3.4726562 24.25 A 20.436071 20.436071 0 0 1 23.910156 3.8144531 z M 16.066406 10.957031 L 16.066406 24.28125 L 10.005859 24.28125 L 23.900391 41.238281 L 37.867188 24.28125 L 31.804688 24.28125 L 31.804688 10.957031 L 16.066406 10.957031 z "
       transform="matrix(0.26458333,0,0,0.26458333,0,284.3)"
       id="path1374" />
  </g>
</svg>

<?xml version="1.0" encoding="UTF-8" standalone="no"?>
<svg
   xmlns:dc="http://purl.org/dc/elements/1.1/"
   xmlns:cc="http://creativecommons.org/ns#"
   xmlns:rdf="http://www.w3.org/1999/02/22-rdf-syntax-ns#"
   xmlns:svg="http://www.w3.org/2000/svg"
   xmlns="http://www.w3.org/2000/svg"
   xmlns:sodipodi="http://sodipodi.sourceforge.net/DTD/sodipodi-0.dtd"
   xmlns:inkscape="http://www.inkscape.org/namespaces/inkscape"
   width="48"
   height="48"
   version="1.1"
   viewBox="0 0 12.7 12.7"
   id="svg8"
   sodipodi:docname="folder-download.svg"
   inkscape:version="0.92.3 (2405546, 2018-03-11)">
  <defs
     id="defs12" />
  <sodipodi:namedview
     pagecolor="#ffffff"
     bordercolor="#666666"
     borderopacity="1"
     objecttolerance="10"
     gridtolerance="10"
     guidetolerance="10"
     inkscape:pageopacity="0"
     inkscape:pageshadow="2"
     inkscape:window-width="883"
     inkscape:window-height="480"
     id="namedview10"
     showgrid="false"
     inkscape:zoom="4.9166667"
     inkscape:cx="4.1694915"
     inkscape:cy="24"
     inkscape:window-x="0"
     inkscape:window-y="25"
     inkscape:window-maximized="0"
     inkscape:current-layer="svg8" />
  <metadata
     id="metadata2">
    <rdf:RDF>
      <cc:Work
         rdf:about="">
        <dc:format>image/svg+xml</dc:format>
        <dc:type
           rdf:resource="http://purl.org/dc/dcmitype/StillImage" />
        <dc:title></dc:title>
      </cc:Work>
    </rdf:RDF>
  </metadata>
  <g
     transform="translate(0,-284.3)"
     id="g6">
    <path
       transform="matrix(.26458 0 0 .26458 0 284.3)"
       d="m23.979 0.27539a23.771 23.771 0 0 0 -23.771 23.771 23.771 23.771 0 0 0 23.771 23.77 23.771 23.771 0 0 0 23.77 -23.77 23.771 23.771 0 0 0 -23.77 -23.771zm-0.06836 3.5391a20.436 20.436 0 0 1 20.436 20.436 20.436 20.436 0 0 1 -20.436 20.436 20.436 20.436 0 0 1 -20.437 -20.436 20.436 20.436 0 0 1 20.437 -20.436zm-7.8438 7.1426v13.324h-6.0605l13.895 16.957 13.967-16.957h-6.0625v-13.324h-15.738z"
       fill="#1a1a1a"
       stroke-width=".52517"
       id="path4" />
  </g>
</svg>
